ix/shopping-bag_outline.svg

<svg viewBox="0 0 24 24" fill="none" xmlns="http://www.w3.org/2000/svg" height="1em" width="1em">
  <path d="M16.4904 22.75H7.50042C5.78042 22.75 4.49043 22.29 3.69043 21.38C2.89043 20.47 2.58042 19.15 2.79042 17.44L3.69043 9.94C3.95043 7.73 4.51043 5.75 8.41043 5.75H15.6104C19.5004 5.75 20.0604 7.73 20.3304 9.94L21.2304 17.44C21.4304 19.15 21.1304 20.48 20.3304 21.38C19.5004 22.29 18.2204 22.75 16.4904 22.75ZM8.40042 7.25C5.52042 7.25 5.38042 8.38999 5.17042 10.11L4.27043 17.61C4.12043 18.88 4.30042 19.81 4.81042 20.38C5.32042 20.95 6.22042 21.24 7.50042 21.24H16.4904C17.7704 21.24 18.6704 20.95 19.1804 20.38C19.6904 19.81 19.8704 18.88 19.7204 17.61L18.8204 10.11C18.6104 8.37999 18.4804 7.25 15.5904 7.25H8.40042Z" fill="#292D32"/>
  <path d="M16 8.75C15.59 8.75 15.25 8.41 15.25 8V4.5C15.25 3.42 14.58 2.75 13.5 2.75H10.5C9.42 2.75 8.75 3.42 8.75 4.5V8C8.75 8.41 8.41 8.75 8 8.75C7.59 8.75 7.25 8.41 7.25 8V4.5C7.25 2.59 8.59 1.25 10.5 1.25H13.5C15.41 1.25 16.75 2.59 16.75 4.5V8C16.75 8.41 16.41 8.75 16 8.75Z" fill="#292D32"/>
  <path d="M20.41 17.78H8C7.59 17.78 7.25 17.44 7.25 17.03C7.25 16.62 7.59 16.28 8 16.28H20.41C20.82 16.28 21.16 16.62 21.16 17.03C21.16 17.44 20.82 17.78 20.41 17.78Z" fill="#292D32"/>
</svg>

<svg viewBox="0 0 24 24" fill="none" xmlns="http://www.w3.org/2000/svg" height="1em" width="1em">
  <path d="M16.49 22.75H7.5c-1.72 0-3.01-.46-3.81-1.37-.8-.91-1.11-2.23-.9-3.94l.9-7.5c.26-2.21.82-4.19 4.72-4.19h7.2c3.89 0 4.45 1.98 4.72 4.19l.9 7.5c.2 1.71-.1 3.04-.9 3.94-.83.91-2.11 1.37-3.84 1.37ZM8.4 7.25c-2.88 0-3.02 1.14-3.23 2.86l-.9 7.5c-.15 1.27.03 2.2.54 2.77.51.57 1.41.86 2.69.86h8.99c1.28 0 2.18-.29 2.69-.86.51-.57.69-1.5.54-2.77l-.9-7.5c-.21-1.73-.34-2.86-3.23-2.86H8.4Z" fill="#292D32"/>
  <path d="M16 8.75c-.41 0-.75-.34-.75-.75V4.5c0-1.08-.67-1.75-1.75-1.75h-3c-1.08 0-1.75.67-1.75 1.75V8c0 .41-.34.75-.75.75s-.75-.34-.75-.75V4.5c0-1.91 1.34-3.25 3.25-3.25h3c1.91 0 3.25 1.34 3.25 3.25V8c0 .41-.34.75-.75.75Zm4.41 9.03H8c-.41 0-.75-.34-.75-.75s.34-.75.75-.75h12.41c.41 0 .75.34.75.75s-.34.75-.75.75Z" fill="#292D32"/>
</svg>
